svg/shield_crown_outline.svg

<svg xmlns="http://www.w3.org/2000/svg" viewBox="0 0 24 24"><path d="m12 1 9 4v6c0 5.55-3.84 10.74-9 12-5.16-1.26-9-6.45-9-12V5zm0 2.18L5 6.3v4.92C5 15.54 8.25 20 12 21c3.75-1 7-5.46 7-9.78V6.3zM16 14v1.59c-.04.22-.22.37-.47.41H8.47c-.25-.04-.43-.19-.47-.41V14zm1-6-1 5H8L7 8l2.67 2.67L12 8.34l2.33 2.33z"/></svg>

<svg xmlns="http://www.w3.org/2000/svg" id="mdi-shield-crown-outline" viewBox="0 0 24 24"><path d="M12 1L21 5V11C21 16.55 17.16 21.74 12 23C6.84 21.74 3 16.55 3 11V5L12 1M12 3.18L5 6.3V11.22C5 15.54 8.25 20 12 21C15.75 20 19 15.54 19 11.22V6.3L12 3.18M16 14V15.5L16 15.59C15.96 15.81 15.78 15.96 15.53 16L15.43 16H8.57L8.47 16C8.22 15.96 8.04 15.81 8 15.59L8 15.5V14H16M17 8L16 13H8L7 8L7 8L9.67 10.67L12 8.34L14.33 10.67L17 8L17 8Z" /></svg>
